tools/panel_16/transmission-panel.svg

<svg xmlns="http://www.w3.org/2000/svg" width="16" height="16" version="1.1">
 <defs>
  <style id="current-color-scheme" type="text/css">
   .ColorScheme-Text { color:#d3dae3; } .ColorScheme-Highlight { color:#5294e2; }
  </style>
 </defs>
 <g>
  <path style="fill:currentColor" class="ColorScheme-Text" d="M 3,1 C 2.446,1 2,1.446 2,2 l 0,12 c 0,0.554 0.446,1 1,1 l 10,0 c 0.554,0 1,-0.446 1,-1 L 14,2 C 14,1.446 13.554,1 13,1 Z m 2,2 6,0 c 0.554,0 1,0.446 1,1 l 0,8 c 0,0.554 -0.446,1 -1,1 L 5,13 C 4.446,13 4,12.554 4,12 L 4,4 C 4,3.446 4.446,3 5,3 Z M 8,4 6,7 7,7 7,9 6,9 8,12 10,9 9,9 9,7 10,7 Z"/>
 </g>
</svg>

<svg xmlns="http://www.w3.org/2000/svg" width="16" height="16" version="1.1">
 <defs>
  <style id="current-color-scheme" type="text/css">
   .ColorScheme-Text { color:#d3dae3; } .ColorScheme-Highlight { color:#5294e2; }
  </style>
 </defs>
 <path style="fill:currentColor" class="ColorScheme-Text" d="M 3,1 C 2.446,1 2,1.446 2,2 V 14 C 2,14.554 2.446,15 3,15 H 13 C 13.554,15 14,14.554 14,14 V 2 C 14,1.446 13.554,1 13,1 Z M 5,3 H 11 C 11.554,3 12,3.446 12,4 V 12 C 12,12.554 11.554,13 11,13 H 5 C 4.446,13 4,12.554 4,12 V 4 C 4,3.446 4.446,3 5,3 Z M 8,4 6,7 H 7 V 9 H 6 L 8,12 10,9 H 9 V 7 H 10 Z"/>
</svg>
